assets/ver1.svg

<svg height="2500" viewBox="0 0 512 512" width="2500" xmlns="http://www.w3.org/2000/svg"><path d="m512 268c0 17.9-4.3 34.5-12.9 49.7s-20.1 27.1-34.6 35.4c.4 2.7.6 6.9.6 12.6 0 27.1-9.1 50.1-27.1 69.1-18.1 19.1-39.9 28.6-65.4 28.6-11.4 0-22.3-2.1-32.6-6.3-8 16.4-19.5 29.6-34.6 39.7-15 10.2-31.5 15.2-49.4 15.2-18.3 0-34.9-4.9-49.7-14.9-14.9-9.9-26.3-23.2-34.3-40-10.3 4.2-21.1 6.3-32.6 6.3-25.5 0-47.4-9.5-65.7-28.6-18.3-19-27.4-42.1-27.4-69.1 0-3 .4-7.2 1.1-12.6-14.5-8.4-26-20.2-34.6-35.4-8.5-15.2-12.8-31.8-12.8-49.7 0-19 4.8-36.5 14.3-52.3s22.3-27.5 38.3-35.1c-4.2-11.4-6.3-22.9-6.3-34.3 0-27 9.1-50.1 27.4-69.1s40.2-28.6 65.7-28.6c11.4 0 22.3 2.1 32.6 6.3 8-16.4 19.5-29.6 34.6-39.7 15-10.1 31.5-15.2 49.4-15.2s34.4 5.1 49.4 15.1c15 10.1 26.6 23.3 34.6 39.7 10.3-4.2 21.1-6.3 32.6-6.3 25.5 0 47.3 9.5 65.4 28.6s27.1 42.1 27.1 69.1c0 12.6-1.9 24-5.7 34.3 16 7.6 28.8 19.3 38.3 35.1 9.5 15.9 14.3 33.4 14.3 52.4zm-266.9 77.1 105.7-158.3c2.7-4.2 3.5-8.8 2.6-13.7-1-4.9-3.5-8.8-7.7-11.4-4.2-2.7-8.8-3.6-13.7-2.9-5 .8-9 3.2-12 7.4l-93.1 140-42.9-42.8c-3.8-3.8-8.2-5.6-13.1-5.4-5 .2-9.3 2-13.1 5.4-3.4 3.4-5.1 7.7-5.1 12.9 0 5.1 1.7 9.4 5.1 12.9l58.9 58.9 2.9 2.3c3.4 2.3 6.9 3.4 10.3 3.4 6.7-.1 11.8-2.9 15.2-8.7z" fill="#1da1f2"/></svg>

<svg width="2500" height="2500" viewBox="0 0 512 512" xmlns="http://www.w3.org/2000/svg" xmlns:xlink="http://www.w3.org/1999/xlink" overflow="hidden"><path d="M512 268C512 285.9 507.7 302.5 499.1 317.7 490.5 332.9 479 344.8 464.5 353.1 464.9 355.8 465.1 360 465.1 365.7 465.1 392.8 456 415.8 438 434.8 419.9 453.9 398.1 463.4 372.6 463.4 361.2 463.4 350.3 461.3 340 457.1 332 473.5 320.5 486.7 305.4 496.8 290.4 507 273.9 512 256 512 237.7 512 221.1 507.1 206.3 497.1 191.4 487.2 180 473.9 172 457.1 161.7 461.3 150.9 463.4 139.4 463.4 113.9 463.4 92 453.9 73.7 434.8 55.4 415.8 46.3 392.7 46.3 365.7 46.3 362.7 46.7 358.5 47.4 353.1 32.9 344.7 21.4 332.9 12.8 317.7 4.3 302.5-5.32907e-14 285.9-5.32907e-14 268-5.32907e-14 249 4.8 231.5 14.3 215.7 23.8 199.9 36.6 188.2 52.6 180.6 48.4 169.2 46.3 157.7 46.3 146.3 46.3 119.3 55.4 96.2 73.7 77.2 92 58.2 113.9 48.6 139.4 48.6 150.8 48.6 161.7 50.7 172 54.9 180 38.5 191.5 25.3 206.6 15.2 221.6 5.1 238.1-4.61853e-14 256-4.61853e-14 273.9-4.61853e-14 290.4 5.1 305.4 15.1 320.4 25.2 332 38.4 340 54.8 350.3 50.6 361.1 48.5 372.6 48.5 398.1 48.5 419.9 58 438 77.1 456.1 96.2 465.1 119.2 465.1 146.2 465.1 158.8 463.2 170.2 459.4 180.5 475.4 188.1 488.2 199.8 497.7 215.6 507.2 231.5 512 249 512 268ZM245.1 345.1 350.8 186.8C353.5 182.6 354.3 178 353.4 173.1 352.4 168.2 349.9 164.3 345.7 161.7 341.5 159 336.9 158.1 332 158.8 327 159.6 323 162 320 166.2L226.9 306.2 184 263.4C180.2 259.6 175.8 257.8 170.9 258 165.9 258.2 161.6 260 157.8 263.4 154.4 266.8 152.7 271.1 152.7 276.3 152.7 281.4 154.4 285.7 157.8 289.2L216.7 348.1 219.6 350.4C223 352.7 226.5 353.8 229.9 353.8 236.6 353.7 241.7 350.9 245.1 345.1Z" fill="#1DA1F2"/></svg>
